X: 1
T:Devil Among the Tailors
M:4/4
L:1/8
Q:1/4=130
R:Reel
K:A
(3efg|
"A"a2eg a2eg|"A"a2eg fedc|
"Bm"dfBf dfBf|"Bm"dfba "E7"gabg|
"A"a2eg a2eg|"A"a2ea fedc|
"D"defd "A"ecBA|"E7"E2G2 "A"A2:|
ed|
"A"ceAe ceAe|"A"ceag fedc|
"Bm"dfBf dfBf|"Bm"dfba "E7"gfed|
"A"ceAe ceAe|"A"ceag fedc|
"D"defd ecBA|"E7"E2G2 "A"A2:|

% Output from ABC2Win  Version 2.1 i on 21/05/2001
